X:529
T:The Buffens
Z:Jack Campin, http://www.campin.me.uk/
F:Jack Campin's Nine-Note Tunebook
% last edit 03-02-2013
S:Thoinot Arbeau, Orchesographie
M:3/2
L:1/4
Q:1/2=60
K:GDor
FG AA B2|AG AF G2|FG AA B2|AF GG F2 |
c2 dc B2|AG AB c2|c2 dc B2|GF GG F2|]

